public/GreenMessage.svg

<svg width="216" height="322" viewBox="0 0 216 322" fill="none" xmlns="http://www.w3.org/2000/svg">
<path fill-rule="evenodd" clip-rule="evenodd" d="M-93.5743 102.731L61.5742 13.1558C67.2147 9.89903 72.0823 7.08854 76.2705 5.03758C80.6793 2.8788 85.2901 1.06694 90.4867 0.385481C102.204 -1.14954 114.059 2.03705 123.441 9.24629C127.601 12.4426 130.692 16.325 133.435 20.4061C136.039 24.2834 138.854 29.159 142.117 34.8098L202.093 138.691C205.355 144.341 208.17 149.217 210.226 153.411C212.388 157.828 214.205 162.445 214.894 167.647C216.446 179.375 213.278 191.237 206.09 200.615C202.901 204.775 199.027 207.862 194.953 210.602C191.082 213.203 186.215 216.013 180.574 219.27L25.4255 308.845C19.7843 312.102 14.9169 314.912 10.7298 316.964C6.3199 319.122 1.70895 320.933 -3.48674 321.614C-15.2042 323.151 -27.0593 319.963 -36.4417 312.755C-40.6025 309.558 -43.6927 305.676 -46.4351 301.595C-49.0401 297.717 -51.855 292.841 -55.117 287.191L-115.093 183.31C-118.355 177.659 -121.171 172.784 -123.226 168.589C-125.389 164.173 -127.206 159.556 -127.894 154.355C-129.446 142.625 -126.278 130.765 -119.09 121.384C-115.902 117.225 -112.027 114.138 -107.953 111.399C-104.083 108.798 -99.2157 105.988 -93.5743 102.731ZM-97.8605 144.329C-96.2746 136.274 -88.4631 131.041 -80.4129 132.64L28.3002 154.231C35.6023 155.682 42.8427 151.502 45.2375 144.453L80.8955 39.5082C83.5355 31.7374 91.974 27.5888 99.7413 30.2433C107.51 32.8972 111.667 41.3482 109.027 49.119L73.3697 154.064C66.1841 175.212 44.4653 187.751 22.5579 183.4L-86.1557 161.808C-94.2059 160.209 -99.4463 152.383 -97.8605 144.329Z" fill="#04B159"/>
</svg>

<svg xmlns="http://www.w3.org/2000/svg" width="216" height="322" fill="none"><path fill="#04B159" fill-rule="evenodd" d="M-93.574 102.731 61.574 13.156c5.64-3.257 10.508-6.067 14.697-8.118 4.408-2.16 9.02-3.971 14.216-4.653a44.59 44.59 0 0 1 32.954 8.861c4.16 3.197 7.251 7.079 9.994 11.16 2.604 3.877 5.419 8.753 8.682 14.404l59.976 103.881c3.262 5.65 6.077 10.526 8.133 14.72 2.162 4.417 3.979 9.034 4.668 14.236a44.58 44.58 0 0 1-8.804 32.968c-3.189 4.16-7.063 7.247-11.137 9.987-3.871 2.601-8.738 5.411-14.379 8.668L25.426 308.845c-5.642 3.257-10.51 6.067-14.696 8.119-4.41 2.158-9.021 3.969-14.217 4.65a44.58 44.58 0 0 1-32.955-8.859c-4.16-3.197-7.25-7.079-9.993-11.16-2.605-3.878-5.42-8.754-8.682-14.404l-59.976-103.881c-3.262-5.651-6.078-10.526-8.133-14.721-2.163-4.416-3.98-9.033-4.668-14.234a44.6 44.6 0 0 1 8.804-32.971c3.188-4.159 7.063-7.246 11.137-9.985 3.87-2.601 8.737-5.411 14.379-8.668m-4.287 41.598c1.586-8.055 9.398-13.288 17.448-11.689L28.3 154.231a14.83 14.83 0 0 0 16.937-9.778L80.897 39.508c2.64-7.77 11.078-11.92 18.845-9.265 7.769 2.654 11.926 11.105 9.286 18.876L73.37 154.064c-7.186 21.148-28.905 33.687-50.812 29.336l-108.714-21.592c-8.05-1.599-13.29-9.425-11.704-17.479" clip-rule="evenodd"/></svg>
